src/img/icons/volume--mute.svg

<?xml version="1.0" encoding="UTF-8"?>
<svg width="24px" height="24px" viewBox="0 0 24 24" version="1.1" xmlns="http://www.w3.org/2000/svg" xmlns:xlink="http://www.w3.org/1999/xlink">
    <!-- Generator: Sketch 64 (93537) - https://sketch.com -->
    <title>volume-mute</title>
    <desc>Created with Sketch.</desc>
    <defs>
        <path d="M1.3524,0.0595238095 L23.9796,22.5083333 L22.6272,23.8511905 L12.6912,13.9940476 L12.6912,20.9547619 L6.3024,16.4309524 L0,16.4309524 L0,7.50238095 L6.1476,7.5 L0,1.40357143 L1.3524,0.0595238095 Z M20.4528,3.07142857 C22.6116,5.33928571 23.9448,8.38690476 23.9448,11.7428571 C23.9448,14.3833333 23.1204,16.8309524 21.7188,18.8595238 L20.6388,17.7880952 C21.7788,16.0464286 22.4448,13.972619 22.4448,11.7428571 C22.4448,8.78095238 21.2688,6.09166667 19.3644,4.09166667 L20.4528,3.07142857 Z M18.276,5.11309524 C19.9272,6.84761905 20.9472,9.17738095 20.9472,11.7440476 C20.9472,13.5607143 20.436,15.2595238 19.5528,16.7107143 L18.4548,15.6214286 C19.086,14.4678571 19.446,13.1488095 19.446,11.7440476 C19.446,9.57142857 18.5832,7.60119048 17.1864,6.13333333 L18.276,5.11309524 Z M16.098,7.15357143 C17.2404,8.35357143 17.946,9.96666667 17.946,11.7452381 C17.946,12.7333333 17.7276,13.6702381 17.3376,14.5142857 L16.1832,13.3690476 C16.3536,12.8571429 16.4472,12.3119048 16.4472,11.7452381 C16.4472,10.3619048 15.8964,9.10833333 15.0072,8.17380952 L16.098,7.15357143 Z M12.6924,2.97619048 L12.6912,9.9047619 L8.616,5.86428571 L12.6924,2.97619048 Z" id="path-1"></path>
    </defs>
    <g id="Page-1" stroke="none" stroke-width="1" fill="none" fill-rule="evenodd">
        <g id="volume-mute">
            <g id="prefix__a-link" fill="#FFFFFF" fill-rule="nonzero">
                <path d="M1.3524,0.0595238095 L23.9796,22.5083333 L22.6272,23.8511905 L12.6912,13.9940476 L12.6912,20.9547619 L6.3024,16.4309524 L0,16.4309524 L0,7.50238095 L6.1476,7.5 L0,1.40357143 L1.3524,0.0595238095 Z M20.4528,3.07142857 C22.6116,5.33928571 23.9448,8.38690476 23.9448,11.7428571 C23.9448,14.3833333 23.1204,16.8309524 21.7188,18.8595238 L20.6388,17.7880952 C21.7788,16.0464286 22.4448,13.972619 22.4448,11.7428571 C22.4448,8.78095238 21.2688,6.09166667 19.3644,4.09166667 L20.4528,3.07142857 Z M18.276,5.11309524 C19.9272,6.84761905 20.9472,9.17738095 20.9472,11.7440476 C20.9472,13.5607143 20.436,15.2595238 19.5528,16.7107143 L18.4548,15.6214286 C19.086,14.4678571 19.446,13.1488095 19.446,11.7440476 C19.446,9.57142857 18.5832,7.60119048 17.1864,6.13333333 L18.276,5.11309524 Z M16.098,7.15357143 C17.2404,8.35357143 17.946,9.96666667 17.946,11.7452381 C17.946,12.7333333 17.7276,13.6702381 17.3376,14.5142857 L16.1832,13.3690476 C16.3536,12.8571429 16.4472,12.3119048 16.4472,11.7452381 C16.4472,10.3619048 15.8964,9.10833333 15.0072,8.17380952 L16.098,7.15357143 Z M12.6924,2.97619048 L12.6912,9.9047619 L8.616,5.86428571 L12.6924,2.97619048 Z" id="prefix__a"></path>
            </g>
            <g id="Clipped">
                <mask id="mask-2" fill="white">
                    <use xlink:href="#path-1"></use>
                </mask>
                <g id="prefix__a"></g>
                <polygon id="Path" fill="#FFFFFF" fill-rule="nonzero" mask="url(#mask-2)" points="0 0 24 0 24 23.8095238 0 23.8095238"></polygon>
            </g>
        </g>
    </g>
</svg>

<svg width="24" height="24" xmlns="http://www.w3.org/2000/svg" xmlns:xlink="http://www.w3.org/1999/xlink"><defs><path d="M1.352.06L23.98 22.508l-1.353 1.343-9.936-9.857v6.96l-6.389-4.523H0V7.502L6.148 7.5 0 1.404 1.352.06zm19.1 3.011c2.16 2.268 3.493 5.316 3.493 8.672 0 2.64-.825 5.088-2.226 7.117l-1.08-1.072a10.998 10.998 0 001.806-6.045c0-2.962-1.176-5.651-3.08-7.651l1.088-1.02zm-2.176 2.042c1.651 1.735 2.671 4.064 2.671 6.631a9.522 9.522 0 01-1.394 4.967l-1.098-1.09a8.048 8.048 0 00.991-3.877 8.113 8.113 0 00-2.26-5.61l1.09-1.02zm-2.178 2.04a6.638 6.638 0 011.848 4.592c0 .988-.218 1.925-.608 2.77l-1.155-1.146a5.13 5.13 0 00.264-1.624c0-1.383-.55-2.637-1.44-3.571l1.091-1.02zm-3.406-4.177v6.929l-4.076-4.04 4.076-2.889z" id="a"/></defs><g fill="none" fill-rule="evenodd"><path d="M1.352.06L23.98 22.508l-1.353 1.343-9.936-9.857v6.96l-6.389-4.523H0V7.502L6.148 7.5 0 1.404 1.352.06zm19.1 3.011c2.16 2.268 3.493 5.316 3.493 8.672 0 2.64-.825 5.088-2.226 7.117l-1.08-1.072a10.998 10.998 0 001.806-6.045c0-2.962-1.176-5.651-3.08-7.651l1.088-1.02zm-2.176 2.042c1.651 1.735 2.671 4.064 2.671 6.631a9.522 9.522 0 01-1.394 4.967l-1.098-1.09a8.048 8.048 0 00.991-3.877 8.113 8.113 0 00-2.26-5.61l1.09-1.02zm-2.178 2.04a6.638 6.638 0 011.848 4.592c0 .988-.218 1.925-.608 2.77l-1.155-1.146a5.13 5.13 0 00.264-1.624c0-1.383-.55-2.637-1.44-3.571l1.091-1.02zm-3.406-4.177v6.929l-4.076-4.04 4.076-2.889z" fill="#FFF" fill-rule="nonzero"/><mask id="b" fill="#fff"><use xlink:href="#a"/></mask><path fill="#FFF" fill-rule="nonzero" mask="url(#b)" d="M0 0h24v23.81H0z"/></g></svg>
